X: 17981
T: Hugh McKenna's
R: reel
M: 4/4
K: Eminor
BA|:G2E2 E2B,2|EDEF G2AG|F2D2 A2D2|FEFG A2BA|
G2E2 E2B,2|EDEF G2GA|B2e2 dBAB|1 G2E2 E2BA:|2 G2E2 E2gf||
|:e2B2 B2E2|e^def g2ag|f2d2 d2A2|FAde f2gf|
e2B2 B2E2|e^def g2fe|d2Bd B2AF|1 G2E2 E2gf:|2 G2E2 E2BA||

